**kern
*staff1
*head[head1]
*solo[solo1]
*solo[solo2]
=1-
*clefG2
*k[]
*C:
*M4/4
*>head1
4r
{24b\LL
24cc\
24b\JJ
8a/
8g/L
8f/J
20e/LL
20c/
20g-/
20c/
[20f/JJ
=2
2.f/_
8f/L]
16e-/L
16c/JJ
=3
[4e/
8e/L]
16f/L
16e/JJ
12c/L
12d/
[12B-/J
4B-/]}
=4
2r
2r
=5
8r
{[8ee\
24ee\LL]
24ff\
24ee\JJ
8dd\
8cc\L
8b-\J
24a/LL
24b-/
24a/JJ
8f/
=6
12a-/L
12f/
[12g/J
2g/_
12g/L]
12f/
12c/J
=7
4.e/
[8dd\
2dd\]}
=8
2r
8r
{8d\L
8dd\
[8cc\J
=9
8cc\]
4a/
8g/
8f/L
8A/
8c/
8e/J
=10
8d/L
8c/J
12B/L
12d/
12f/J
4a-/
8g/L
8f/J
=11
[4e/
8e/L]
16c/L
16A/JJ
8c/L
[8G/J
4G/]}
=12
2r
2r
=13
*>solo1
{16r
16c/LL
16f#/
16g/JJ
16cc/LL
16b-/
16a/
16g/JJ
16fn/LL
16e/
16d/
16d-/JJ
16c/LL
16A/JJ
24B-/LL
24c/
24B-/JJ
=14||
16A/LL
16c/
16d/
16c/JJ
16g/LL
16f/
16c/
16A/JJ
4e-/
4r
=15
8r
{16B/LL
16c/JJ
16d/LL
16c/
16B/
16c/JJ
16d#/LL
16e/
16f/
16f#/JJ
16g/LL
16a/
16b-/
16cc/JJ
=16
16dd\LL
16ff\
16ee\
16cc\JJ
16cc#\LL
16dd\
16b-\
16g\JJ
16ccn/LL2C:dom
16a/JJ
24b-\LL
24cc\
24b-\JJ
16a-/LL
16e-/
16d-/
16B/JJ
=17
16c/LL
16A/JJ
24B-/LL
24d/
24f/JJ
16g/LL
16f/
16c/
16B-/JJ
16d/LL
16e-/
16c/
16A/JJ
16d/LK
8.F/J}
=18
2r
2r
=19
8r
*>solo1
{8c/L
8g/
8dd/J
24b\LL
24cc\
24b\JJ
8g/L
8e/
8B/J
=20
2B-/}
2r
=21
8r
{8G#/
16A/LL
16c/
16e/
16g/JJ
8f/L
8c/J
24A/LL
24B-/
24A/JJ
8F/
=22
16A-/LL
16f/
16e/
16d/JJ
[4B/
4B/]
8d/L
8B/J
=23
16c/LL
16a-/
16f/
16f#/JJ
16g/LK
[8.e/J
4e/]}
4r
=24
2r
2r
=25
8r
*>solo2
{16g/LL
16a/JJ
16cc\LL
16dd\
16dd#\
16ee\JJ
16ff\LL
16cc\J
[8ee\
8ee\]
16ff\L
16cc\JJ
=26||
8ee\L
8ff\J
4r
8r
24cc\LL
24cc\
24cc\JJ
8gg-\L
8ff\J
=27
16ee-\LL2C:dom
16cc\J
[8een\
8ee\]
16cc\L
16dd\JJ
2b-\}
=28
1r
1r
4r
8r
{24cc\LL
24cc\
24cc\JJ
=29
4ee-\
24ee-\LL
24gg\
24ee-\JJ
8cc\
8ee-/L
[8f/J
4f/]}
=30
4r
8r
{24ee-\LL
24dd\
24cc\JJ
16b-/LL
16a/
16a-/
16f/JJ
16e-/LL
16B-/
16A-/
16G-/JJ
=31
16G/LL
16f/
16d/
16e-/JJ
16en/LL
16G/
16A/
16B/JJ
16d/LL
16c/
16B/
16c/JJ
16e/LL
16g/
16b/
16cc/JJ
=32
16dd\LL
16b\
16cc#\
16b-\JJ
4f#/
8r
16cc#\LL
16b-\JJ
16a/LL
16f#/
16d/
16A/JJ
=33
16c#/LL
16a/JJ
24f/LL
24c#/
24A/JJ
16cn/LL
16A/JJ
24B/LL
24d/
24f/JJ
16a/LL
16f/
16d/
16B/JJ
16g/LL
16f/JJ}
8r
=34
4r
{24ee-\LL
24dd\
24cc\JJ
16b-/LL
16a/JJ
16a-/LL
16f/
16e-/
16B/JJ
16A-/LL
16G-/
16Gn/
16f/JJ
=35
16d/LL
16d#/
16e/
16G/JJ
16A/LL
16B/
16c/
16B-/JJ
16A/LL
16c/J
8e/J
8r
8b\
=36
16cc\LL
16b\J
[8cc\J
16cc\LL]
16b\
16cc\
16b\JJ
8cc\L
16b\L
16b-\JJ
16a/LL
16f/
16d/
16G/JJ
=37
8g/L
[8e/J
2e/]}
4r
==
*-
